; HEADER_BLOCK_START
; generated by OrcaSlicer 2.2.0 on 2024-12-19 at 21:10:52
; total layer number: 2
; filament_density: 1.24,1.24
; filament_diameter: 1.75,1.75
; max_z_height: 0.40
; HEADER_BLOCK_END

; THUMBNAIL_BLOCK_START

;
; THUMBNAIL_BLOCK_END

; THUMBNAIL_BLOCK_START

;
; THUMBNAIL_BLOCK_END

; THUMBNAIL_BLOCK_START

;
; THUMBNAIL_BLOCK_END

; external perimeters extrusion width = 0.40mm
; perimeters extrusion width = 0.40mm
; infill extrusion width = 0.45mm
; solid infill extrusion width = 0.40mm
; top infill extrusion width = 0.40mm
; support material extrusion width = 0.40mm
; first layer extrusion width = 0.50mm

; EXECUTABLE_BLOCK_START
EXCLUDE_OBJECT_DEFINE NAME=prusa.stl_id_0_copy_0 CENTER=175,175 POLYGON=[[57.603,97.002],[77.002,77.77],[281.068,77.77],[292.397,91.6228],[292.397,252.998],[272.998,272.23],[69.6492,272.23],[57.603,260.377],[57.603,97.002]]
M73 P0 R11
;TYPE:Custom
G28
G90
G1 X175 F9000
G1 Y175
G1 Z0.800 F600
SET_HEATER_TEMPERATURE HEATER=extruder TARGET=150
M140 S65 ;set bed temp
M190 S65 ;wait for bed temp
_HEAT_WAIT MINUTES=5
START_PRINT
G92 E0.0 ; reset extruder
G1 X209.139 Y288.972 Z0.8 F6000.0 ; position 10mm behind print.
M104 S225 ;set extruder temp
M109 S225;wait for extruder temp

G1 E100 F600
M400
G92 E0.0 ; reset extruder
G1 X219.139 Y288.972 Z0.8 F6000.0 ; position 10mm behind print.
M73 P2 R10
M73 P2 R10
G1 X179.139 Y288.972 E40 F360.0 ; extrude 40mm of filament in the x direction
G92 E0.0 ; reset extruder
G1 E-0.5 F2100 ; small retraction
M73 P3 R10
M73 P3 R10
G1 X259.139 F6000.0 ; move an additional 10mm without extruding
G92 E0.0 ; reset extruder
M106 P3 S38
G90
G21
M83 ; use relative distances for extrusion
; filament start gcode
T0
M106 S0
;LAYER_CHANGE
;Z:0.2
;HEIGHT:0.2
TIMELAPSE_TAKE_FRAME
G1 E-.3 F3300
;_SET_FAN_SPEED_CHANGING_LAYER
SET_VELOCITY_LIMIT ACCEL=1500 ACCEL_TO_DECEL=750
SET_VELOCITY_LIMIT SQUARE_CORNER_VELOCITY=9
G1 Z.3 F36000
G1 X72.416 Y73.144
G1 Z.3
G1 Z.2
G1 E.3 F3300
;TYPE:Skirt
;WIDTH:0.5
G1 F3000
G1 X74.285 Y71.85 E.07778
G1 X77.002 Y71.256 E.09511
G1 X281.068 Y71.256 E6.9802
G1 X283.307 Y71.653 E.07778
M73 P4 R10
M73 P4 R10
G1 X285.273 Y72.795 E.07778
G1 X286.11 Y73.646 E.04082
G1 X297.439 Y87.499 E.61214
G1 X298.55 Y89.483 E.07778
G1 X298.911 Y91.623 E.07421
G1 X298.911 Y252.998 E5.51995
G1 X298.514 Y255.237 E.07778
G1 X296.983 Y257.624 E.09699
G1 X277.584 Y276.856 E.93438
G1 X275.715 Y278.15 E.07778
G1 X272.998 Y278.744 E.09511
G1 X69.649 Y278.744 E6.95569
G1 X67.41 Y278.347 E.07778
M73 P5 R10
M73 P5 R10
G1 X65.081 Y276.873 E.09429
G1 X53.034 Y265.02 E.57807
G1 X51.717 Y263.167 E.07778
G1 X51.089 Y260.377 E.09781
G1 X51.089 Y97.002 E5.58836
G1 X51.486 Y94.763 E.07778
G1 X53.017 Y92.376 E.09699
G1 X72.387 Y73.172 E.93301
G1 X72.709 Y73.497 F36000
G1 F3000
G1 X72.738 Y73.469 E.00137
G1 X74.548 Y72.233 E.07498
G1 X77.002 Y71.713 E.0858
G1 X281.068 Y71.713 E6.9802
G1 X283.223 Y72.11 E.07498
M73 P6 R10
M73 P6 R10
G1 X285.756 Y73.936 E.10679
G1 X297.086 Y87.788 E.61214
G1 X298.143 Y89.708 E.07498
G1 X298.454 Y91.623 E.06634
G1 X298.454 Y252.998 E5.51995
G1 X298.057 Y255.154 E.07498
M73 P7 R10
M73 P7 R10
G1 X296.661 Y257.299 E.08755
G1 X277.262 Y276.531 E.93438
G1 X275.452 Y277.767 E.07498
G1 X272.998 Y278.287 E.0858
G1 X69.649 Y278.287 E6.95569
G1 X67.493 Y277.89 E.07498
G1 X65.401 Y276.547 E.08503
G1 X53.355 Y264.695 E.57807
G1 X52.096 Y262.9 E.07498
G1 X51.546 Y260.377 E.08831
G1 X51.546 Y97.002 E5.58836
G1 X51.943 Y94.846 E.07498
M73 P8 R10
M73 P8 R10
G1 X53.339 Y92.701 E.08755
G1 X72.681 Y73.525 E.93164
G1 X73.003 Y73.85 F36000
G1 F3000
G1 X73.06 Y73.793 E.00274
G1 X74.808 Y72.618 E.07207
G1 X77.002 Y72.17 E.07658
G1 X281.068 Y72.17 E6.9802
G1 X283.137 Y72.567 E.07207
M73 P9 R10
M73 P9 R10
G1 X285.402 Y74.225 E.09603
G1 X296.732 Y88.078 E.61214
G1 X297.735 Y89.931 E.07207
G1 X297.997 Y91.623 E.05857
G1 X297.997 Y252.998 E5.51995
G1 X297.6 Y255.067 E.07207
G1 X296.339 Y256.975 E.07821
G1 X276.94 Y276.207 E.93438
G1 X275.192 Y277.382 E.07207
G1 X272.998 Y277.83 E.07658
G1 X69.649 Y277.83 E6.95569
G1 X67.58 Y277.433 E.07207
M73 P10 R9
M73 P10 R9
G1 X65.722 Y276.222 E.07588
G1 X53.676 Y264.369 E.57807
G1 X52.478 Y262.635 E.07207
G1 X52.003 Y260.377 E.07891
G1 X52.003 Y97.002 E5.58836
G1 X52.4 Y94.933 E.07207
M73 P11 R9
M73 P11 R9
G1 X53.661 Y93.025 E.07821
G1 X72.974 Y73.878 E.93028
G1 X73.296 Y74.202 F36000
G1 F3000
G1 X73.381 Y74.118 E.0041
G1 X75.066 Y73.006 E.06904
G1 X77.002 Y72.627 E.06748
G1 X281.068 Y72.627 E6.9802
G1 X283.047 Y73.023 E.06904
G1 X285.048 Y74.514 E.08537
G1 X296.378 Y88.367 E.61214
G1 X297.324 Y90.15 E.06904
G1 X297.54 Y91.623 E.05092
G1 X297.54 Y252.998 E5.51995
G1 X297.144 Y254.977 E.06904
M73 P12 R9
M73 P12 R9
G1 X296.018 Y256.65 E.06898
G1 X276.619 Y275.882 E.93438
G1 X274.934 Y276.994 E.06904
G1 X272.998 Y277.373 E.06748
G1 X69.649 Y277.373 E6.95569
G1 X67.67 Y276.977 E.06904
M73 P13 R9
M73 P13 R9
G1 X66.042 Y275.896 E.06683
G1 X53.996 Y264.043 E.57807
G1 X52.863 Y262.372 E.06904
G1 X52.46 Y260.377 E.06963
G1 X52.46 Y97.002 E5.58836
G1 X52.856 Y95.023 E.06904
G1 X53.982 Y93.35 E.06898
G1 X73.268 Y74.231 E.92891
G1 X73.589 Y74.555 F36000
G1 F3000
G1 X73.703 Y74.442 E.00547
G1 X75.32 Y73.397 E.06587
G1 X77.002 Y73.084 E.05851
G1 X281.068 Y73.084 E6.9802
G1 X282.952 Y73.48 E.06587
M73 P14 R9
M73 P14 R9
G1 X284.695 Y74.804 E.07484
G1 X296.024 Y88.656 E.61214
G1 X296.911 Y90.366 E.06587
G1 X297.083 Y91.623 E.0434
G1 X297.083 Y252.998 E5.51995
G1 X296.687 Y254.883 E.06587
G1 X295.696 Y256.326 E.05987
G1 X276.297 Y275.558 E.93438
G1 X274.68 Y276.603 E.06587
G1 X272.998 Y276.916 E.05851
G1 X69.649 Y276.916 E6.95569
G1 X67.765 Y276.52 E.06587
M73 P15 R9
M73 P15 R9
G1 X66.363 Y275.57 E.05792
G1 X54.317 Y263.717 E.57807
G1 X53.251 Y262.113 E.06587
G1 X52.917 Y260.377 E.06047
G1 X52.917 Y97.002 E5.58836
G1 X53.313 Y95.117 E.06587
M73 P16 R9
M73 P16 R9
G1 X54.304 Y93.674 E.05987
G1 X73.561 Y74.583 E.92754
G1 X73.883 Y74.908 F36000
G1 F3000
G1 X74.025 Y74.767 E.00684
G1 X75.571 Y73.791 E.06254
G1 X77.002 Y73.541 E.04969
G1 X281.068 Y73.541 E6.9802
G1 X282.853 Y73.937 E.06254
G1 X284.341 Y75.093 E.06446
G1 X295.67 Y88.946 E.61214
G1 X296.494 Y90.578 E.06254
G1 X296.626 Y91.623 E.03602
G1 X296.626 Y252.998 E5.51995
G1 X296.23 Y254.783 E.06254
M73 P17 R9
M73 P17 R9
G1 X295.374 Y256.001 E.05092
G1 X275.975 Y275.233 E.93438
G1 X274.429 Y276.209 E.06254
G1 X272.998 Y276.459 E.04969
G1 X69.649 Y276.459 E6.95569
G1 X67.864 Y276.063 E.06254
M73 P18 R9
M73 P18 R9
G1 X66.683 Y275.244 E.04915
G1 X54.637 Y263.391 E.57807
G1 X53.642 Y261.858 E.06254
G1 X53.374 Y260.377 E.05146
G1 X53.374 Y97.002 E5.58836
G1 X53.77 Y95.217 E.06254
G1 X54.626 Y93.999 E.05092
G1 X73.854 Y74.936 E.92617
; printing object prusa.stl id:0 copy 0
G1 E-.3 F3300
;WIPE_START
G1 F3000
G1 X74.025 Y74.767
G1 X74.668 Y74.361
;WIPE_END
EXCLUDE_OBJECT_START NAME=prusa.stl_id_0_copy_0
G1 Z.3 F36000
G1 X95.6 Y94.533 Z.3
G1 X87.374 Y94.533
G1 X74.895 Y107.541
G1 X74.895 Y160.412
G1 X87.374 Y172.592
G1 X162.126 Y172.592
M73 P19 R9
M73 P19 R9
G1 X178.718 Y189.953
G1 X178.718 Y242.459
G1 X191.668 Y254.475
G1 X262.626 Y254.475
G1 X262.626 Y254.475
G1 X263.661 Y255.096
G1 Z.2
G1 E.3 F3300
;TYPE:Inner wall
G1 F3000
G1 X263.661 Y255.51 E.01417
G1 X190.633 Y255.51 E2.49798
G1 X190.633 Y243.494 E.41102
M73 P19 R8
M73 P19 R8
G1 X177.683 Y243.494 E.44296
G1 X177.683 Y188.918 E1.86682
G1 X190.633 Y188.918 E.44296
G1 X190.633 Y177.099 E.40428
G1 X215.297 Y177.099 E.84366
G1 X215.297 Y186.882 E.33463
G1 X237.769 Y186.882 E.76866
G1 X237.769 Y177.099 E.33463
G1 X263.661 Y177.099 E.88566
M73 P20 R8
M73 P20 R8
G1 X263.661 Y188.918 E.40428
G1 X275.662 Y188.918 E.4105
G1 X275.662 Y243.494 E1.86682
G1 X263.661 Y243.494 E.4105
G1 X263.661 Y255.084 E.39644
G1 X263.161 Y255.053 F36000
G1 F3000
G1 X191.09 Y255.053 E2.46525
G1 X191.09 Y243.037 E.41102
G1 X178.14 Y243.037 E.44296
G1 X178.14 Y189.375 E1.83555
G1 X191.09 Y189.375 E.44296
G1 X191.09 Y177.556 E.40428
G1 X214.84 Y177.556 E.81239
G1 X214.84 Y187.339 E.33463
M73 P21 R8
M73 P21 R8
G1 X238.226 Y187.339 E.79993
G1 X238.226 Y177.556 E.33463
G1 X263.204 Y177.556 E.8544
G1 X263.204 Y189.375 E.40428
G1 X275.205 Y189.375 E.4105
G1 X275.205 Y243.037 E1.83555
G1 X263.204 Y243.037 E.4105
G1 X263.204 Y255.053 E.41102
G1 X263.173 Y255.053 E.00106
G1 X262.747 Y254.596 F36000
;TYPE:Outer wall
G1 F3000
G1 X191.547 Y254.596 E2.43545
G1 X191.547 Y242.58 E.41102
G1 X178.597 Y242.58 E.44296
G1 X178.597 Y189.832 E1.80428
G1 X191.547 Y189.832 E.44296
M73 P22 R8
M73 P22 R8
G1 X191.547 Y178.013 E.40428
G1 X214.383 Y178.013 E.78112
G1 X214.383 Y187.796 E.33463
G1 X238.683 Y187.796 E.8312
G1 X238.683 Y178.013 E.33463
G1 X262.747 Y178.013 E.82313
G1 X262.747 Y189.832 E.40428
G1 X274.748 Y189.832 E.4105
G1 X274.748 Y242.58 E1.80428
G1 X262.747 Y242.58 E.4105
G1 X262.747 Y254.584 E.41061
G1 E-.3 F3300
;WIPE_START
G1 F3000
G1 X261.747 Y254.584
;WIPE_END
G1 Z.3 F36000
G1 X261.747 Y254.932 Z.3
G1 X263.083 Y254.932
G1 X275.084 Y242.916
G1 X275.084 Y189.496
G1 X263.083 Y177.677
G1 X262.222 Y177.677
G1 X262.247 Y173.049
G1 X262.247 Y173.627
G1 Z.2
G1 E.3 F3300
;TYPE:Inner wall
G1 F3000
G1 X237.769 Y173.627 E.83729
G1 X237.769 Y164.41 E.31527
G1 X215.297 Y164.41 E.76866
M73 P23 R8
M73 P23 R8
G1 X215.297 Y173.627 E.31527
G1 X190.633 Y173.627 E.84366
G1 X190.633 Y161.447 E.41663
G1 X177.931 Y161.447 E.43448
G1 X177.931 Y106.506 E1.87931
G1 X190.633 Y106.506 E.43448
G1 X190.633 Y93.344 E.45022
G1 X263.661 Y93.344 E2.49798
G1 X263.661 Y106.506 E.45022
G1 X275.91 Y106.506 E.41899
G1 X275.91 Y161.447 E1.87931
G1 X263.661 Y161.447 E.41899
G1 X263.661 Y173.627 E.41663
M73 P24 R8
M73 P24 R8
G1 X262.259 Y173.627 E.04796
G1 X262.247 Y173.17 F36000
G1 F3000
G1 X238.226 Y173.17 E.82166
G1 X238.226 Y163.953 E.31527
G1 X214.84 Y163.953 E.79993
G1 X214.84 Y173.17 E.31527
G1 X191.09 Y173.17 E.81239
G1 X191.09 Y160.99 E.41663
G1 X178.388 Y160.99 E.43448
G1 X178.388 Y106.963 E1.84804
G1 X191.09 Y106.963 E.43448
G1 X191.09 Y93.801 E.45022
G1 X263.204 Y93.801 E2.46671
G1 X263.204 Y106.963 E.45022
G1 X275.453 Y106.963 E.41899
G1 X275.453 Y160.99 E1.84804
M73 P25 R8
M73 P25 R8
G1 X263.204 Y160.99 E.41899
G1 X263.204 Y173.17 E.41663
G1 X262.259 Y173.17 E.03233
G1 X262.747 Y172.713 F36000
;TYPE:Outer wall
G1 F3000
G1 X238.683 Y172.713 E.82313
G1 X238.683 Y163.496 E.31527
G1 X214.383 Y163.496 E.8312
G1 X214.383 Y172.713 E.31527
G1 X191.547 Y172.713 E.78112
G1 X191.547 Y160.533 E.41663
G1 X178.845 Y160.533 E.43448
G1 X178.845 Y107.42 E1.81677
G1 X191.547 Y107.42 E.43448
G1 X191.547 Y94.258 E.45022
G1 X262.747 Y94.258 E2.43545
G1 X262.747 Y107.42 E.45022
M73 P26 R8
M73 P26 R8
G1 X274.996 Y107.42 E.41899
G1 X274.996 Y160.533 E1.81677
G1 X262.747 Y160.533 E.41899
G1 X262.747 Y172.701 E.41621
G1 E-.3 F3300
;WIPE_START
G1 F3000
G1 X261.747 Y172.701
;WIPE_END
G1 Z.3 F36000
G1 X161.747 Y173.627 Z.3
G1 Z.2
G1 E.3 F3300
;TYPE:Inner wall
G1 F3000
G1 X135.652 Y173.627 E.8926
G1 X135.652 Y164.41 E.31527
G1 X113.18 Y164.41 E.76866
G1 X113.18 Y173.627 E.31527
G1 X86.339 Y173.627 E.91813
G1 X86.339 Y161.447 E.41663
G1 X73.86 Y161.447 E.42685
G1 X73.86 Y106.506 E1.87931
G1 X86.339 Y106.506 E.42685
M73 P27 R8
M73 P27 R8
G1 X86.339 Y93.498 E.44495
G1 X163.161 Y93.498 E2.62776
G1 X163.161 Y106.506 E.44495
G1 X175.459 Y106.506 E.42066
G1 X175.459 Y161.447 E1.87931
G1 X163.161 Y161.447 E.42066
G1 X163.161 Y173.627 E.41663
G1 X161.759 Y173.627 E.04796
G1 X161.747 Y173.17 F36000
G1 F3000
G1 X136.109 Y173.17 E.87697
G1 X136.109 Y163.953 E.31527
G1 X112.723 Y163.953 E.79993
G1 X112.723 Y173.17 E.31527
G1 X86.796 Y173.17 E.88686
G1 X86.796 Y160.99 E.41663
M73 P28 R8
M73 P28 R8
G1 X74.317 Y160.99 E.42685
G1 X74.317 Y106.963 E1.84804
G1 X86.796 Y106.963 E.42685
G1 X86.796 Y93.955 E.44495
G1 X162.704 Y93.955 E2.59649
M73 P28 R7
M73 P28 R7
G1 X162.704 Y106.963 E.44495
G1 X175.002 Y106.963 E.42066
G1 X175.002 Y160.99 E1.84804
G1 X162.704 Y160.99 E.42066
G1 X162.704 Y173.17 E.41663
G1 X161.759 Y173.17 E.03233
G1 X162.247 Y172.713 F36000
;TYPE:Outer wall
G1 F3000
G1 X136.566 Y172.713 E.87844
G1 X136.566 Y163.496 E.31527
G1 X112.266 Y163.496 E.8312
M73 P29 R7
M73 P29 R7
G1 X112.266 Y172.713 E.31527
G1 X87.253 Y172.713 E.85559
G1 X87.253 Y160.533 E.41663
G1 X74.774 Y160.533 E.42685
G1 X74.774 Y107.42 E1.81677
G1 X87.253 Y107.42 E.42685
G1 X87.253 Y94.412 E.44495
G1 X162.247 Y94.412 E2.56522
G1 X162.247 Y107.42 E.44495
G1 X174.545 Y107.42 E.42066
G1 X174.545 Y160.533 E1.81677
G1 X162.247 Y160.533 E.42066
G1 X162.247 Y172.701 E.41621
M73 P30 R7
M73 P30 R7
G1 E-.3 F3300
;WIPE_START
G1 F3000
G1 X161.247 Y172.701
;WIPE_END
G1 Z.3 F36000
G1 X161.247 Y173.049 Z.3
G1 X174.633 Y189.496
G1 X174.633 Y242.916
G1 X162.583 Y254.95
G1 X163.161 Y255.114
G1 Z.2
G1 E.3 F3300
;TYPE:Inner wall
G1 F3000
G1 X163.161 Y255.528 E.01417
G1 X86.339 Y255.528 E2.62776
G1 X86.339 Y243.494 E.41163
G1 X73.612 Y243.494 E.43534
G1 X73.612 Y188.918 E1.86682
G1 X86.339 Y188.918 E.43534
G1 X86.339 Y177.099 E.40428
G1 X113.18 Y177.099 E.91813
G1 X113.18 Y186.882 E.33463
G1 X135.652 Y186.882 E.76866
G1 X135.652 Y177.099 E.33463
G1 X163.161 Y177.099 E.94098
G1 X163.161 Y188.918 E.40428
M73 P31 R7
M73 P31 R7
G1 X175.211 Y188.918 E.41218
G1 X175.211 Y243.494 E1.86682
G1 X163.161 Y243.494 E.41218
G1 X163.161 Y255.102 E.39705
G1 X162.661 Y255.071 F36000
G1 F3000
G1 X86.796 Y255.071 E2.59502
G1 X86.796 Y243.037 E.41163
G1 X74.069 Y243.037 E.43534
G1 X74.069 Y189.375 E1.83555
G1 X86.796 Y189.375 E.43534
G1 X86.796 Y177.556 E.40428
G1 X112.723 Y177.556 E.88686
G1 X112.723 Y187.339 E.33463
M73 P32 R7
M73 P32 R7
G1 X136.109 Y187.339 E.79993
G1 X136.109 Y177.556 E.33463
G1 X162.704 Y177.556 E.90971
G1 X162.704 Y189.375 E.40428
G1 X174.754 Y189.375 E.41218
G1 X174.754 Y243.037 E1.83555
G1 X162.704 Y243.037 E.41218
G1 X162.704 Y255.071 E.41163
G1 X162.673 Y255.071 E.00106
G1 X162.247 Y254.614 F36000
;TYPE:Outer wall
G1 F3000
G1 X87.253 Y254.614 E2.56522
G1 X87.253 Y242.58 E.41163
G1 X74.526 Y242.58 E.43534
G1 X74.526 Y189.832 E1.80428
G1 X87.253 Y189.832 E.43534
M73 P33 R7
M73 P33 R7
G1 X87.253 Y178.013 E.40428
G1 X112.266 Y178.013 E.85559
G1 X112.266 Y187.796 E.33463
G1 X136.566 Y187.796 E.8312
G1 X136.566 Y178.013 E.33463
G1 X162.247 Y178.013 E.87844
G1 X162.247 Y189.832 E.40428
G1 X174.297 Y189.832 E.41218
G1 X174.297 Y242.58 E1.80428
G1 X162.247 Y242.58 E.41218
G1 X162.247 Y254.602 E.41122
G1 E-.3 F3300
;WIPE_START
G1 F3000
G1 X161.247 Y254.602
;WIPE_END
G1 Z.3 F36000
G1 X161.247 Y254.95 Z.3
G1 X86.917 Y259.578
G1 X70.626 Y270.446
G1 X70.659 Y270.237
G1 X71.23 Y270.327
G1 Z.2
G1 E.3 F3300
;TYPE:Inner wall
G1 F3000
G1 X71.282 Y270 E.01134
G1 X70.73 Y266.514 E.12074
G1 X69.127 Y263.369 E.12074
G1 X66.631 Y260.873 E.12074
G1 X63.486 Y259.27 E.12074
G1 X60 Y258.718 E.12074
G1 X58.867 Y258.897 E.03923
G1 X58.867 Y243.494 E.52688
G1 X71.14 Y243.494 E.41981
G1 X71.14 Y188.918 E1.86682
M73 P34 R7
M73 P34 R7
G1 X58.867 Y188.918 E.41981
G1 X58.867 Y161.447 E.93965
G1 X71.388 Y161.447 E.42829
G1 X71.388 Y106.506 E1.87931
G1 X58.867 Y106.506 E.42829
G1 X58.867 Y98.266 E.28184
G1 X68.446 Y98.266 E.32764
G1 X68.938 Y96.432 E.06495
G1 X69.491 Y95.244 E.04482
G1 X70.243 Y94.171 E.04482
G1 X71.17 Y93.244 E.04485
G1 X72.243 Y92.492 E.04483
G1 X73.431 Y91.939 E.04482
G1 X74.697 Y91.599 E.04484
G1 X76.002 Y91.485 E.0448
G1 X78.266 Y91.683 E.07774
G1 X78.266 Y79.034 E.43267
G1 X86.339 Y79.034 E.27613
G1 X86.339 Y90.026 E.37599
G1 X163.161 Y90.026 E2.62776
G1 X163.161 Y79.034 E.37599
M73 P35 R7
M73 P35 R7
G1 X190.633 Y79.034 E.93969
G1 X190.633 Y89.872 E.37072
G1 X263.661 Y89.872 E2.49798
G1 X263.661 Y79.034 E.37072
G1 X279.187 Y79.034 E.53108
G1 X278.718 Y82 E.10271
G1 X279.27 Y85.486 E.12074
G1 X280.873 Y88.631 E.12074
G1 X283.369 Y91.127 E.12074
G1 X286.514 Y92.73 E.12074
G1 X290 Y93.282 E.12074
G1 X291.133 Y93.103 E.03923
G1 X291.133 Y106.506 E.45846
G1 X278.382 Y106.506 E.43616
G1 X278.382 Y161.447 E1.87931
G1 X291.133 Y161.447 E.43616
G1 X291.133 Y188.918 E.93965
G1 X278.134 Y188.918 E.44464
G1 X278.134 Y243.494 E1.86682
G1 X291.133 Y243.494 E.44464
M73 P36 R7
M73 P36 R7
